symbols/web/water_damage/materialsymbolsoutlined/water_damage_wght500gradN25_24px.svg

<svg xmlns="http://www.w3.org/2000/svg" height="24" width="24"><path d="M5.1 19.875V12H2.15L12 3.15 21.85 12H18.9v7.875Zm2.15-2.15h9.5V10.3L12 6.05 7.25 10.3ZM12 15.95q.825 0 1.425-.587.6-.588.6-1.438 0-.675-.362-1.4Q13.3 11.8 12 9.925q-1.3 1.875-1.662 2.6-.363.725-.363 1.4 0 .85.6 1.438.6.587 1.425.587Zm0-4.1Z"/></svg>

<svg xmlns="http://www.w3.org/2000/svg" height="24" width="24"><path d="M5.1 19.875V12H2.15L12 3.15L21.85 12H18.9V19.875ZM7.25 17.725H16.75V10.3L12 6.05L7.25 10.3ZM12 15.95Q12.825 15.95 13.425 15.363Q14.025 14.775 14.025 13.925Q14.025 13.25 13.663 12.525Q13.3 11.8 12 9.925Q10.7 11.8 10.338 12.525Q9.975 13.25 9.975 13.925Q9.975 14.775 10.575 15.363Q11.175 15.95 12 15.95ZM12 11.85Z"/></svg>
